X: 29075
T: Neili's
R: polka
M: 2/4
K: Gmajor
|:"Blasket Islands" AB cA|AG FG|AB cA|AF G2|
AB cA|AG FD|DG AB|cA G2:|
|:AG FD|AG FD|DG AB|cA GF|
AG FD|AG FD|DG AB|cA G2:|
|:"variation pt.1" B2 Bc|AG FD|B2 Bc|AF G2|
B2 Bc|AG FE|DG AB|cA G2:|

